images/swiper-arrow-right.svg

<svg width="30" height="31" viewBox="0 0 30 31" fill="none" xmlns="http://www.w3.org/2000/svg">
<path d="M17.2324 15.4692L9.78516 8.02783C9.23438 7.47705 9.23438 6.58643 9.78516 6.0415C10.3359 5.49658 11.2266 5.49658 11.7773 6.0415L20.2148 14.4731C20.748 15.0063 20.7598 15.8618 20.2559 16.4126L11.7832 24.9028C11.5078 25.1782 11.1445 25.313 10.7871 25.313C10.4297 25.313 10.0664 25.1782 9.79102 24.9028C9.24023 24.3521 9.24023 23.4614 9.79102 22.9165L17.2324 15.4692Z" fill="#FFFAFA"/>
</svg>

<svg width="30" height="31" fill="none" xmlns="http://www.w3.org/2000/svg"><path d="M17.232 15.47L9.785 8.027a1.4 1.4 0 010-1.987 1.418 1.418 0 011.992 0l8.438 8.432c.533.533.545 1.389.04 1.94l-8.472 8.49c-.275.275-.638.41-.996.41a1.41 1.41 0 01-.996-.41 1.4 1.4 0 010-1.986l7.441-7.448z" fill="snow"/></svg>
